web-components-icons/e500-image/SVG/decrease-vertical-spacing.svg

<svg xmlns="http://www.w3.org/2000/svg" viewBox="0 0 512 512"><defs><style>.cls-1{fill-rule:evenodd;}</style></defs><title>decrease-vertical-spacing</title><g id="decrease_vertical_spacing" data-name="decrease vertical spacing"><path class="cls-1" d="M191,320v96h96v64H63V416h96V320H-1V224H159V128H95V32H255v96H191v96H351v96ZM351,425.37,373.63,448,431,390.63,488.37,448,511,425.37l-80-80Zm80-226.74,80-80L488.37,96,431,153.37,373.63,96,351,118.63Z"/></g></svg>

<?xml version="1.0" encoding="utf-8"?>
<!-- Generator: Adobe Illustrator 24.2.0, SVG Export Plug-In . SVG Version: 6.00 Build 0)  -->
<svg version="1.1" id="Layer_1" xmlns="http://www.w3.org/2000/svg" xmlns:xlink="http://www.w3.org/1999/xlink" x="0px" y="0px"
	 width="512px" height="512px" viewBox="0 0 512 512" xml:space="preserve">
<path d="M191,320v96h96v64H63v-64h96v-96H-1v-96h160v-96H95V32h160v96h-64v96h160v96H191z M351,425.4l22.6,22.6
	l57.4-57.4l57.4,57.4l22.6-22.6l-80-80L351,425.4z M431,198.6l80-80L488.4,96L431,153.4L373.6,96L351,118.6L431,198.6z"/>
</svg>
